X:1
T:Bourr?e d'Aurore Sand
Z:Dave Holland <dave@biff.org.uk>
B:On Bouge tune book vol 1
M:2/4
R:Bourree
L:1/8
K:Dm
D>E FG|A3 A|Ad ^cd|A3 A|B>A GE|F>E DE/F/|GA FE|D4:|
A>G FG|A>G FG|A>G AB|A>G FG|A>G FG|A>G FG|AG FE|D4:|
<end>
<start>
